X: 962
T: Sir John Malcolm
R: reel
B: Robert Bremner "A Collection of Scots Reels or Country Dances" 1757 p.96 #2
S: http://imslp.org/wiki/A_Collection_of_Scots_Reels_or_Country_Dances_(Bremner,_Robert)
Z: 2013 John Chambers <jc:trillian.mit.edu>
N: The 2nd strain has initial repeat but no final repeat; not fixed.
M: C
L: 1/8
K: D
% - - - - - - - - - - - - - - - - - - - - - - - - -
V: 1
d |\
A>Bde fdef | A/A/A AF A2Ad |\
ABde fdef | B/B/B dA B2B :|\
|: b |\
a>baf Te>def | TA2A>F A2Af |
a>baf Tedef | B/B/B dA B2Bb |\
abfa Te>def | TA2A>F A2Ad |\
ABde fdef | dBdA B2B |]
% - - - - - - - - - - - - - - - - - - - - - - - - -
V: 2 clef=bass middle=d
z |\
a2a2 a2a2 | a2a2 a2a2 |\
a2a2 a2a2 | b2b2 b2b :|\
|: z |\
a2a2 a2a2 | a2a2
a2a2 |\
a2a2 a2a2 | b2b2 b2b2 |\
a2a2 a2a2 | a2a2 a2a2 |\
a2a2 a2a2 | b2b2 b2b |]
% - - - - - - - - - - - - - - - - - - - - - - - - -
